app/[lang]/(home)/(new-home)/assets/stacks-appicons/php.svg

<svg width="16" height="16" viewBox="0 0 16 16" fill="none" xmlns="http://www.w3.org/2000/svg">
<path d="M4.78769 6.90137H4.2348L3.92725 8.48003H4.37702C4.72369 8.48003 4.98147 8.41603 5.14502 8.28981C5.3068 8.16537 5.4188 7.95026 5.47747 7.64803C5.53258 7.36714 5.51125 7.16981 5.41525 7.06492C5.31747 6.95648 5.10591 6.90137 4.78769 6.90137ZM11.8988 6.90137H11.3459L11.0384 8.48003H11.4881C11.8348 8.48003 12.0926 8.41603 12.2561 8.28981C12.4179 8.16537 12.5299 7.95026 12.5886 7.64803C12.6437 7.36714 12.6224 7.16981 12.5264 7.06492C12.4286 6.95648 12.217 6.90137 11.8988 6.90137Z" fill="#787DB0"/>
<path d="M8.00014 3.82751C3.61792 3.82751 0.065918 5.69596 0.065918 7.99996C0.065918 10.304 3.61792 12.1724 7.99836 12.1724C12.3788 12.1724 15.9344 10.304 15.9344 7.99996C15.9344 5.69596 12.3824 3.82751 8.00014 3.82751ZM5.98947 8.81596C5.79925 8.99374 5.58414 9.12174 5.35125 9.19818C5.12192 9.27285 4.82681 9.31018 4.47481 9.31018H3.76547L3.56281 10.352C3.5557 10.3928 3.52014 10.4213 3.47747 10.4213H2.56725C2.54236 10.4213 2.51747 10.4106 2.50147 10.3893C2.48547 10.3697 2.47836 10.3431 2.4837 10.3182L3.29614 6.13685C3.30325 6.09596 3.33881 6.06751 3.38147 6.06751H5.13258C5.6837 6.06751 6.09258 6.21685 6.35036 6.51196C6.60992 6.80885 6.68992 7.22307 6.58858 7.74396C6.5477 7.95551 6.47658 8.15285 6.37881 8.32885C6.27925 8.50663 6.1477 8.67018 5.98947 8.81596ZM8.60992 9.27996C8.59392 9.2604 8.58681 9.23374 8.59214 9.20885L8.95125 7.35818C8.98503 7.18218 8.97614 7.05596 8.92814 7.00263C8.89792 6.97063 8.80725 6.91551 8.53703 6.91551H7.88636L7.43481 9.24263C7.4277 9.28351 7.39214 9.31196 7.34947 9.31196H6.44636C6.42147 9.31196 6.39658 9.30129 6.38058 9.27996C6.36458 9.2604 6.35747 9.23374 6.36281 9.20885L7.17525 5.02751C7.18236 4.98663 7.21792 4.95818 7.26058 4.95818H8.1637C8.18858 4.95818 8.21347 4.96885 8.22947 4.99018C8.24547 5.00974 8.25258 5.0364 8.24725 5.06129L8.0517 6.07107H8.75214C9.28547 6.07107 9.64814 6.16529 9.8597 6.35907C10.0748 6.5564 10.1424 6.87285 10.0588 7.29774L9.68014 9.2444C9.67303 9.28529 9.63747 9.31374 9.59481 9.31374H8.67747C8.65081 9.31196 8.62592 9.29951 8.60992 9.27996ZM13.6979 7.74396C13.657 7.95551 13.5859 8.15285 13.4864 8.32885C13.3868 8.50485 13.257 8.6684 13.0988 8.81418C12.9086 8.99196 12.6935 9.11996 12.4606 9.1964C12.2313 9.27107 11.9361 9.3084 11.5841 9.3084H10.8748L10.6721 10.3502C10.665 10.3911 10.6295 10.4195 10.5868 10.4195H9.67658C9.6517 10.4195 9.62681 10.4088 9.61081 10.3875C9.59481 10.368 9.5877 10.3413 9.59303 10.3164L10.4055 6.13507C10.4126 6.09418 10.4481 6.06574 10.4908 6.06574H12.2419C12.793 6.06574 13.2019 6.21507 13.4597 6.51018C13.7193 6.80885 13.7993 7.22307 13.6979 7.74396Z" fill="#787DB0"/>
</svg>

<svg xmlns="http://www.w3.org/2000/svg" fill="none" viewBox="0 0 16 16">
  <path
    fill="#787DB0"
    d="M4.79 6.9h-.56l-.3 1.58h.45c.34 0 .6-.06.77-.19.16-.12.27-.34.33-.64.05-.28.03-.48-.06-.59-.1-.1-.31-.16-.63-.16Zm7.1 0h-.54l-.31 1.58h.45c.34 0 .6-.06.77-.19.16-.12.27-.34.33-.64.05-.28.03-.48-.06-.59-.1-.1-.31-.16-.63-.16Z"
  />
  <path
    fill="#787DB0"
    d="M8 3.83C3.62 3.83.07 5.7.07 8S3.62 12.17 8 12.17 15.93 10.3 15.93 8 12.38 3.83 8 3.83ZM5.99 8.82c-.2.17-.4.3-.64.38a2.9 2.9 0 0 1-.88.11h-.7l-.2 1.04c-.01.04-.05.07-.1.07h-.9a.08.08 0 0 1-.07-.03.09.09 0 0 1-.02-.07l.82-4.18c0-.04.04-.07.08-.07h1.75c.55 0 .96.15 1.22.44.26.3.34.71.24 1.23a1.98 1.98 0 0 1-.6 1.08Zm2.62.46a.09.09 0 0 1-.02-.07l.36-1.85c.04-.18.03-.3-.02-.36-.03-.03-.12-.08-.4-.08H7.9l-.46 2.32c0 .04-.04.07-.08.07h-.9a.08.08 0 0 1-.07-.03.09.09 0 0 1-.02-.07l.82-4.18c0-.04.04-.07.08-.07h.9c.03 0 .05 0 .07.03.02.02.02.05.02.07l-.2 1.01h.7c.54 0 .9.1 1.11.29.21.2.28.51.2.94l-.38 1.94c0 .05-.04.07-.09.07h-.91a.1.1 0 0 1-.07-.03Zm5.09-1.54a1.93 1.93 0 0 1-1.24 1.46 2.9 2.9 0 0 1-.88.1h-.7l-.2 1.05c-.02.04-.05.07-.1.07h-.9a.08.08 0 0 1-.07-.03.09.09 0 0 1-.02-.07l.82-4.18c0-.05.04-.07.08-.07h1.75c.55 0 .96.15 1.22.44.26.3.34.71.24 1.23Z"
  />
</svg>
